X: 131010
T: the WEE PICKLE TOW
Q: "Scotch Jig."
R: Jig.
%R: jig
N: This is version 1, for ABC software that doesn't understand voice overlays.
B: James Kerr "Merry Melodies" v.1 p.31 s.0 #10
Z: 2016 John Chambers <jc:trillian.mit.edu>
M: 6/8
L: 1/8
K: A
uE |\
EFG ABc | dac uB2ue | cAB cdB | cAA uA2uF |\
EFG ABc | dac uB2ue | cAB cdB | cAA A2 :|
|: a |\
[ff2]ga [ff2]ga | [ff2]ga fec | efe efg | aec cBA |\
dcd efg | aec uB2ue | cAB cdB | cAA A2 :|
